X:1
T:Title
%%score ( 1 2 ) ( 3 4 )
L:1/8
Q:1/4=105
M:6/8
K:Ab
V:1 treble nm="Grand Piano, Soprano"
V:2 treble 
V:3 bass nm="Choir Pad, The Message of the Bells"
V:4 bass 
V:1
 [CE] [Ec]2 [DB] [CA]2 | C [_CG]2 [CF] [=CE]2 | [Ec] [EAe]2- [EAe] [EAe]2- | %3
w: By~Joseph~Lincoln~Hall * * *|||
 [EAe] [EAe]2- [EAe]2- [EAe]/ z/ | [CE] [Ec]2 [DB] [CA]2 | C [_CG]2 [CF] [=CE]2 | %6
w: |||
 [Ec] [=DB]2- [DB] [DF_c=d]2- | [DFcd] [EGBe]2- [EGBe]2- [EGBe]/ z/ | d c2 d c2 | B B2 A A2 | %10
w: ||||
 c B2 c B2 | F [EA]2 [EG] [EG]2 | E [EA]2 [EA] [EB]2 | [EB] [Ec]2 [Ec] [Ad]2 | z6 | z6 | z6 | z6 | %18
w: ||||||||
 z6 | z6 | z6 | z6 | z6 | z6 | z6 | z6 | z6 | z2 d- d3- | d3 z3 | z6 | z2 A- A3- | A6- | A3 z3 |] %33
w: |||||||||||||||
V:2
 x6 | x6 | x6 | x6 | x6 | x6 | x6 | x6 | x6 | x6 | z =D2- D/ z/ D2- | D3 z3 | x6 | x6 | %14
 [A=d] [Ae]2- [Ae] [DEG]2- | [DEG] [CEA]2- [CEA]3- | [CEA]EF- F2 E- | E2 C- C3- | CcB- B2 A- | %19
 A2 D- D3- | D[DF][DE]- [DE][DG][DG]- | [DG][GB][Gd]- [Gd]3- | [Gd][DE][DF]- [DF][CE][_C=D]- | %23
 [CD][=CE][Ec]- [Ec]3- | [Ec]EF- F2 E- | E2 C- C3- | CcB- B2 F- | F2 z z [DF][DF]- | %28
 [DF][DFB][EA]- [EA]/ z/ ee- | e[EA][EG]- [EG]/ z/ ee- | e[DG]C- CCD- | DDC- C3- | C3 z3 |] %33
V:3
 [A,,E,] [A,,E,]2 [A,,E,] [A,,E,]2 | [A,,E,] [A,,=D,]2 [A,,D,] [A,,E,]2 | %2
 [A,C] [A,C]2- [A,C] [E,G,B,D]2- | [E,G,B,D] [A,C]2- [A,C]2- [A,C]/ z/ | %4
 [A,,E,] [A,,E,]2 [A,,E,] [A,,E,]2 | [A,,E,] [A,,=D,]2 [A,,D,] [A,,E,]2 | %6
 [A,,A,] [B,,F,]2- [B,,F,] [B,,B,]2- | [B,,B,] [E,B,]2- [E,B,]2- [E,B,]/ z/ | %8
 z A,,2- A,, [E,A,C]2- | [E,A,C] A,,2- A,, [E,A,C]2- | [E,A,C] [B,,F,B,]2- [B,,F,B,] [B,,F,B,]2- | %11
 [B,,F,B,] [E,C]2 [E,B,] [E,B,]2 | [G,B,D] [A,C]2 [A,C] [G,B,]2 | [G,B,] [_G,A,]2 [G,A,] [F,A,]2 | %14
 [=E,_C] [_E,=C]2- [E,C] [E,B,]2- | [E,B,] [A,,A,]2- [A,,A,]3- | [A,,A,]2 A,,- A,,[E,A,C][E,A,C]- | %17
 [E,A,C][E,A,C]A,,- A,,[E,A,C][E,A,C]- | [E,A,C][E,A,C]D,- D,[F,A,D][F,A,D]- | %19
 [F,A,D][F,A,D]D,- D,[F,A,][F,A,]- | [F,A,][D,A,][E,G,]- [E,G,][E,B,][E,B,]- | %21
 [E,B,][E,B,][E,B,]- [E,B,][E,B,][E,B,]- | [E,B,][E,G,][A,,A,]- [A,,A,][A,,A,][A,,A,]- | %23
 [A,,A,][A,,A,][A,,A,]- [A,,A,][A,,A,][A,,A,]- | [A,,A,]2 A,,- A,,[E,A,C][E,A,C]- | %25
 [E,A,C][E,A,C]A,,- A,,[E,A,C][E,A,C]- | [E,A,C][E,A,C]D,- D,/ z/ [F,A,D][F,A,D]- | %27
 [F,A,D][F,A,D]B,,- B,,[F,B,][F,B,]- | [F,B,][F,B,][E,C]- [E,C]/ z/ z z | %29
 z [E,C][E,B,D]- [E,B,D]/ z/ z z | z [E,B,]A,- A,E,F,- | F,F,E,- E,3- | E,3 z3 |] %33
V:4
 x6 | x6 | x6 | x6 | x6 | x6 | x6 | x6 | x6 | x6 | x6 | x6 | x6 | x6 | x6 | x6 | x6 | x6 | x6 | %19
 x6 | x6 | x6 | x6 | x6 | x6 | x6 | x6 | x6 | x6 | x6 | z2 A,,- A,,3- | A,,6- | A,,3 z3 |] %33

